img/icons/badge-best.svg

<svg width="16" height="16" viewBox="0 0 16 16" fill="none" xmlns="http://www.w3.org/2000/svg">
<path d="M12.8 4.79999H2.79998V4.39999L11.6 3.69599V4.39999H12.8V3.19999C12.8 2.31999 12.0872 1.70239 11.2168 1.82639L3.18398 2.97359C2.31278 3.09839 1.59998 3.91999 1.59998 4.79999V12.8C1.59998 13.2243 1.76855 13.6313 2.0686 13.9314C2.36866 14.2314 2.77563 14.4 3.19998 14.4H12.8C13.2243 14.4 13.6313 14.2314 13.9313 13.9314C14.2314 13.6313 14.4 13.2243 14.4 12.8V6.39999C14.4 5.97564 14.2314 5.56868 13.9313 5.26862C13.6313 4.96856 13.2243 4.79999 12.8 4.79999ZM11.6 10.4048C11.4423 10.4047 11.2863 10.3736 11.1406 10.3133C10.995 10.2529 10.8627 10.1644 10.7513 10.0529C10.6399 9.94141 10.5515 9.80905 10.4912 9.66339C10.4309 9.51773 10.3999 9.36163 10.4 9.20399C10.4 9.04635 10.4311 8.89027 10.4915 8.74465C10.5519 8.59903 10.6403 8.46673 10.7518 8.3553C10.8634 8.24387 10.9957 8.15549 11.1414 8.09521C11.287 8.03493 11.4431 8.00394 11.6008 8.00399C11.9191 8.0041 12.2244 8.13067 12.4495 8.35586C12.6745 8.58105 12.8009 8.88642 12.8008 9.20479C12.8007 9.52315 12.6741 9.82844 12.4489 10.0535C12.2237 10.2785 11.9183 10.4049 11.6 10.4048Z" fill="#047857"/>
</svg>

<svg width="16" height="16" fill="none" xmlns="http://www.w3.org/2000/svg"><path d="M12.8 4.8h-10v-.4l8.8-.704V4.4h1.2V3.2c0-.88-.713-1.498-1.583-1.374L3.184 2.974C2.313 3.098 1.6 3.92 1.6 4.8v8a1.6 1.6 0 001.6 1.6h9.6a1.6 1.6 0 001.6-1.6V6.4a1.6 1.6 0 00-1.6-1.6zm-1.2 5.605a1.203 1.203 0 01-1.2-1.201 1.199 1.199 0 012.05-.848 1.2 1.2 0 01-.85 2.049z" fill="#047857"/></svg>
